X:72
T:Bessie Bell and Mary Gray
C:arr. Carlo Minasi
M:6/8
L:1/8
B:Chappell's One Hundred Scotch Melodies
B:Arranged for the Concertina by Carlo Minasi
Q:"Allegretto  "3/8=100
Z:Peter Dunk 2012
K:C
!p!G|([EC]>[FD][GE]) ([GE]>[AF][_BG])|([AF]>GA) F2 F|\
([EC]>[FD][GE]) ([GE]>[AF][GE])|[c3E3]{cd}[e2G2] G|
%
([EC]>[FD][GE]) ([GE]>[AF][_BG])|\
([AF]>GF) f2 ([e/c/][f/d/])|\
([ge][fd][ec]) ([fd][ec][dG])|[c3E3]{cd}[e2G2]||
%
g|(e>de) (cde)|(fd_B) (def)|\
(gec) (cdc)|[e3c3G3] ([g2c2A2] e/f/)|
%
(gec) (ege)|(fd_B) (def)|(gfe) (fed)|c3 {cd}e2||

